src/16/mimetypes/vector.svg

<?xml version="1.0" encoding="UTF-8" standalone="no"?>
<!-- Created with Inkscape (http://www.inkscape.org/) -->

<svg
   xmlns:dc="http://purl.org/dc/elements/1.1/"
   xmlns:cc="http://creativecommons.org/ns#"
   xmlns:rdf="http://www.w3.org/1999/02/22-rdf-syntax-ns#"
   xmlns:svg="http://www.w3.org/2000/svg"
   xmlns="http://www.w3.org/2000/svg"
   xmlns:sodipodi="http://sodipodi.sourceforge.net/DTD/sodipodi-0.dtd"
   xmlns:inkscape="http://www.inkscape.org/namespaces/inkscape"
   width="16"
   height="16"
   id="svg2"
   version="1.1"
   inkscape:version="0.91+devel r"
   viewBox="0 0 16 16"
   sodipodi:docname="vector.svg">
  <defs
     id="defs4" />
  <sodipodi:namedview
     id="base"
     pagecolor="#ffffff"
     bordercolor="#666666"
     borderopacity="1.0"
     inkscape:pageopacity="0.0"
     inkscape:pageshadow="2"
     inkscape:zoom="33.782026"
     inkscape:cx="4.6319428"
     inkscape:cy="8.5848143"
     inkscape:document-units="px"
     inkscape:current-layer="layer1"
     showgrid="true"
     inkscape:showpageshadow="false"
     borderlayer="true"
     units="px"
     inkscape:window-width="1366"
     inkscape:window-height="672"
     inkscape:window-x="-4"
     inkscape:window-y="25"
     inkscape:window-maximized="1"
     showguides="true">
    <inkscape:grid
       type="xygrid"
       id="grid4062" />
    <sodipodi:guide
       position="2,14.000017"
       orientation="12,0"
       id="guide4066" />
    <sodipodi:guide
       position="2,2.0000174"
       orientation="0,12"
       id="guide4068" />
    <sodipodi:guide
       position="14,2.0000174"
       orientation="-12,0"
       id="guide4070" />
    <sodipodi:guide
       position="14,14.000017"
       orientation="0,-12"
       id="guide4072" />
  </sodipodi:namedview>
  <metadata
     id="metadata7">
    <rdf:RDF>
      <cc:Work
         rdf:about="">
        <dc:format>image/svg+xml</dc:format>
        <dc:type
           rdf:resource="http://purl.org/dc/dcmitype/StillImage" />
        <dc:title />
      </cc:Work>
    </rdf:RDF>
  </metadata>
  <g
     inkscape:label="Capa 1"
     inkscape:groupmode="layer"
     id="layer1"
     transform="translate(0,-1036.3622)">
    <path
       style="color:#000000;clip-rule:nonzero;display:inline;overflow:visible;visibility:visible;opacity:1;isolation:auto;mix-blend-mode:normal;color-interpolation:sRGB;color-interpolation-filters:linearRGB;solid-color:#000000;solid-opacity:1;fill:#27ae60;fill-opacity:1;fill-rule:nonzero;stroke:none;stroke-width:1;stroke-linecap:butt;stroke-linejoin:miter;stroke-miterlimit:4;stroke-dasharray:none;stroke-dashoffset:0;stroke-opacity:1;color-rendering:auto;image-rendering:auto;shape-rendering:auto;text-rendering:auto;enable-background:accumulate"
       d="M 4 2 C 2.8919952 2 2 2.8919952 2 4 C 2 5.1080048 2.8919952 6 4 6 C 4.5029994 6 4.9559183 5.8102741 5.3066406 5.5058594 C 5.7374153 6.2400076 6 7.0832411 6 8 C 6 8.9167591 5.7374153 9.7599924 5.3066406 10.494141 C 4.9559183 10.189725 4.5029994 10 4 10 C 2.8919952 10 2 10.892 2 12 C 2 13.108 2.8919952 14 4 14 C 4.7410731 14 5.3790496 13.595799 5.7246094 13 L 11 13 L 11 14 L 14 14 L 14 11 L 11 11 L 11 12 L 6 12 C 6 11.803048 5.9627277 11.617005 5.9101562 11.4375 C 6.5935669 10.465405 7 9.2841298 7 8 C 7 6.7201028 6.5833817 5.5527282 5.9042969 4.5820312 C 5.9606325 4.3967745 6 4.2041515 6 4 L 10 4 L 10 6 L 14 6 L 14 2 L 10 2 L 10 3 L 5.7246094 3 C 5.3790496 2.4042011 4.7410731 2 4 2 z M 4 3 C 4.5540048 3 5 3.4459952 5 4 C 5 4.5540048 4.5540048 5 4 5 C 3.4459952 5 3 4.5540048 3 4 C 3 3.4459952 3.4459952 3 4 3 z M 11 3 L 13 3 L 13 5 L 11 5 L 11 3 z M 4 11 C 4.5540048 11 5 11.446 5 12 C 5 12.554 4.5540048 13 4 13 C 3.4459952 13 3 12.554 3 12 C 3 11.446 3.4459952 11 4 11 z M 12 12 L 13 12 L 13 13 L 12 13 L 12 12 z "
       transform="translate(0,1036.3622)"
       id="rect4139" />
  </g>
</svg>

<svg xmlns="http://www.w3.org/2000/svg" width="16" height="16"><path style="isolation:auto;mix-blend-mode:normal;solid-color:#000;solid-opacity:1" d="M4 2c-1.108 0-2 .892-2 2a1.996 1.996 0 0 0 3.307 1.506A4.9 4.9 0 0 1 6 8a4.9 4.9 0 0 1-.693 2.494A1.996 1.996 0 0 0 2 12a1.996 1.996 0 0 0 3.725 1H11v1h3v-3h-3v1H6c0-.197-.037-.383-.09-.563A5.95 5.95 0 0 0 7 8c0-1.28-.417-2.447-1.096-3.418C5.961 4.397 6 4.204 6 4h4v2h4V2h-4v1H5.725A1.99 1.99 0 0 0 4 2zm0 1c.554 0 1 .446 1 1s-.446 1-1 1-1-.446-1-1 .446-1 1-1zm7 0h2v2h-2V3zm-7 8c.554 0 1 .446 1 1s-.446 1-1 1-1-.446-1-1 .446-1 1-1zm8 1h1v1h-1v-1z" color="#000" overflow="visible" fill="#27ae60"/></svg>
